X:259
T:B259-  Joy to the Bridegroom
Q:1/4=120
M:3/4
L:1/4
K:C
g2g|g2g|a^g2|a2g|\
ae2|f2e|fd2|c3||\
e2e|e2e|fe2|d2d|\
c2d/2c/4d/4|e2d/2c/2|dc2|c3|]

